X: 2
T: The Night We Had The Goats
R: reel
M: 4/4
L: 1/8
K: Gmaj
dG G/G/G dBBd|efge dBBe|dG G/G/G dBBd|egdB A/A/A A2:|
e|d<BgB dBBA|dega bage|d<BgB dBBd|egdB A/A/A A2e|
d<BgB dBBA|dega bage|(b/a/g/f/) ge dBBd|egdB A/A/A A2|]


Tune 1393	Setting 1393

